; G-Code generated by Simplify3D(R) Version 3.1.1
; Mar 31, 2017 at 3:50:14 AM
; Settings Summary
;   processName,ABS
;   applyToModels,MK1.1BlowerMod_duct_v3
;   profileName,OdinOneMk1_ABS (modified)
;   profileVersion,2017-02-08 17:08:31
;   baseProfile,Default
;   printMaterial,ABS
;   printQuality,Medium
;   printExtruders,
;   extruderName,Extruder 1
;   extruderToolheadNumber,0
;   extruderDiameter,0.4
;   extruderAutoWidth,0
;   extruderWidth,0.4
;   extrusionMultiplier,0.95
;   extruderUseRetract,1
;   extruderRetractionDistance,1
;   extruderExtraRestartDistance,0
;   extruderRetractionZLift,0
;   extruderRetractionSpeed,1800
;   extruderUseCoasting,0
;   extruderCoastingDistance,0.2
;   extruderUseWipe,0
;   extruderWipeDistance,5
;   primaryExtruder,0
;   layerHeight,0.2
;   topSolidLayers,4
;   bottomSolidLayers,3
;   perimeterOutlines,3
;   printPerimetersInsideOut,1
;   startPointOption,2
;   startPointOriginX,20
;   startPointOriginY,0
;   startPointOriginZ,180
;   sequentialIslands,0
;   spiralVaseMode,0
;   firstLayerHeightPercentage,80
;   firstLayerWidthPercentage,100
;   firstLayerUnderspeed,0.5
;   useRaft,0
;   raftExtruder,0
;   raftLayers,1
;   raftOffset,2.5
;   raftSeparationDistance,0.35
;   raftInfill,95
;   disableRaftBaseLayers,1
;   useSkirt,1
;   skirtExtruder,0
;   skirtLayers,1
;   skirtOutlines,2
;   skirtOffset,4
;   usePrimePillar,0
;   primePillarExtruder,999
;   primePillarWidth,4
;   primePillarLocation,5
;   primePillarSpeedMultiplier,1
;   useOozeShield,0
;   oozeShieldExtruder,999
;   oozeShieldOffset,4
;   oozeShieldOutlines,2
;   oozeShieldSidewallShape,2
;   oozeShieldSidewallAngle,30
;   oozeShieldSpeedMultiplier,1
;   infillExtruder,0
;   internalInfillPattern,Grid
;   externalInfillPattern,Rectilinear
;   infillPercentage,30
;   outlineOverlapPercentage,25
;   infillExtrusionWidthPercentage,100
;   minInfillLength,5
;   infillLayerInterval,1
;   infillAngles,45,-45
;   overlapInfillAngles,1
;   generateSupport,0
;   supportExtruder,0
;   supportInfillPercentage,30
;   supportExtraInflation,0
;   denseSupportLayers,0
;   denseSupportInfillPercentage,70
;   supportLayerInterval,1
;   supportHorizontalPartOffset,0.45
;   supportUpperSeparationLayers,2
;   supportLowerSeparationLayers,1
;   supportType,0
;   supportGridSpacing,4
;   maxOverhangAngle,80
;   supportAngles,0
;   temperatureName,Extruder 1,Heated Bed
;   temperatureNumber,0,0
;   temperatureSetpointCount,1,2
;   temperatureSetpointLayers,1,1,3
;   temperatureSetpointTemperatures,240,85,80
;   temperatureStabilizeAtStartup,1,1
;   temperatureHeatedBed,0,1
;   temperatureRelayBetweenLayers,0,0
;   temperatureRelayBetweenLoops,0,0
;   fanLayers,1,2
;   fanSpeeds,0,100
;   blipFanToFullPower,0
;   adjustSpeedForCooling,1
;   minSpeedLayerTime,15
;   minCoolingSpeedSlowdown,20
;   increaseFanForCooling,0
;   minFanLayerTime,45
;   maxCoolingFanSpeed,100
;   increaseFanForBridging,0
;   bridgingFanSpeed,100
;   use5D,1
;   relativeEdistances,0
;   allowEaxisZeroing,1
;   independentExtruderAxes,0
;   includeM10123,0
;   stickySupport,1
;   applyToolheadOffsets,0
;   gcodeXoffset,0
;   gcodeYoffset,0
;   gcodeZoffset,0
;   overrideMachineDefinition,1
;   machineTypeOverride,0
;   strokeXoverride,200
;   strokeYoverride,200
;   strokeZoverride,200
;   originOffsetXoverride,0
;   originOffsetYoverride,0
;   originOffsetZoverride,0
;   homeXdirOverride,-1
;   homeYdirOverride,-1
;   homeZdirOverride,-1
;   flipXoverride,1
;   flipYoverride,-1
;   flipZoverride,1
;   toolheadOffsets,0,0|0,0|0,0|0,0|0,0|0,0
;   overrideFirmwareConfiguration,1
;   firmwareTypeOverride,RepRap (Marlin/Repetier/Sprinter)
;   GPXconfigOverride,r2
;   baudRateOverride,115200
;   overridePrinterModels,0
;   printerModelsOverride
;   startingGcode,M107; Turn fan off...,G28 ; home all axes
;   layerChangeGcode,
;   retractionGcode,
;   toolChangeGcode,
;   endingGcode,M104 S0 ; turn off extruder,M140 S0 ; turn off bed,G1 Y180 ;,M107; Turn fan off...,M84 ; disable motors
;   exportFileFormat,gcode
;   celebration,0
;   celebrationSong,Random Song
;   postProcessing,
;   defaultSpeed,3600
;   outlineUnderspeed,0.5
;   solidInfillUnderspeed,0.8
;   supportUnderspeed,0.8
;   rapidXYspeed,4800
;   rapidZspeed,1000
;   minBridgingArea,50
;   bridgingExtraInflation,0
;   bridgingExtrusionMultiplier,1
;   bridgingSpeedMultiplier,1
;   filamentDiameter,1.75
;   filamentPricePerKg,25
;   filamentDensity,1.25
;   useMinPrintHeight,0
;   minPrintHeight,0
;   useMaxPrintHeight,0
;   maxPrintHeight,0
;   useDiaphragm,0
;   diaphragmLayerInterval,20
;   robustSlicing,1
;   mergeAllIntoSolid,0
;   onlyRetractWhenCrossingOutline,1
;   retractBetweenLayers,1
;   useRetractionMinTravel,0
;   retractionMinTravel,3
;   retractWhileWiping,0
;   onlyWipeOutlines,1
;   avoidCrossingOutline,0
;   maxMovementDetourFactor,3
;   toolChangeRetractionDistance,12
;   toolChangeExtraRestartDistance,-0.5
;   toolChangeRetractionSpeed,600
;   allowThinWallGapFill,1
;   thinWallAllowedOverlapPercentage,20
;   horizontalSizeCompensation,0
G90
M82
M106 S0
M140 S85
M190 S85
M104 S240 T0
M109 S240 T0
M107; Turn fan off...
G28 ; home all axes
G92 E0
G1 E-1.0000 F1800
G1 Z0.160 F1000
; layer 1, Z = 0.16
T0
; tool H0.200 W0.400
; skirt
G1 X91.797 Y74.235 F4800
G1 E0.0000 F540
G92 E0
G1 X91.891 Y74.129 E0.0045 F1800
G1 X91.898 Y74.121 E0.0048
G1 X92.338 Y73.656 E0.0250
G1 X92.348 Y73.646 E0.0255
G1 X92.491 Y73.509 E0.0317
G1 X92.501 Y73.499 E0.0322
G1 X92.899 Y73.150 E0.0489
G1 X92.920 Y73.134 E0.0498
G1 X93.227 Y72.909 E0.0618
G1 X93.249 Y72.894 E0.0626
G1 X94.129 Y72.363 E0.0951
G1 X94.203 Y72.331 E0.0976
G1 X95.324 Y72.016 E0.1344
G1 X95.405 Y72.005 E0.1370
G1 X97.664 Y71.995 E0.2084
G1 X97.683 Y71.995 E0.2090
G1 X101.714 Y72.007 E0.3364
G1 X121.392 Y72.003 E0.9581
G1 X121.475 Y72.015 E0.9608
G1 X122.637 Y72.348 E0.9990
G1 X122.714 Y72.382 E1.0016
G1 X123.802 Y73.063 E1.0422
G1 X123.864 Y73.114 E1.0447
G1 X124.646 Y73.961 E1.0811
G1 X124.692 Y74.026 E1.0837
G1 X125.195 Y74.995 E1.1181
G1 X125.212 Y75.034 E1.1195
G1 X125.415 Y75.618 E1.1390
G1 X125.426 Y75.660 E1.1404
G1 X125.583 Y76.468 E1.1664
G1 X125.587 Y76.490 E1.1671
G1 X125.624 Y76.798 E1.1769
G1 X125.626 Y76.819 E1.1776
G1 X125.654 Y77.416 E1.1965
G1 X125.654 Y77.423 E1.1967
G1 X125.657 Y77.525 E1.1999
G1 X125.657 Y77.532 E1.2002
G1 X125.657 Y87.579 E1.5176
G1 X129.971 Y102.969 E2.0226
G1 X130.385 Y103.776 E2.0513
G1 X130.388 Y103.783 E2.0515
G1 X130.431 Y103.872 E2.0547
G1 X130.434 Y103.878 E2.0549
G1 X131.176 Y105.505 E2.1114
G1 X131.179 Y105.512 E2.1116
G1 X131.224 Y105.618 E2.1153
G1 X131.227 Y105.626 E2.1155
G1 X131.884 Y107.297 E2.1722
G1 X131.886 Y107.304 E2.1725
G1 X131.925 Y107.412 E2.1761
G1 X131.928 Y107.420 E2.1764
G1 X132.490 Y109.110 E2.2326
G1 X132.492 Y109.115 E2.2328
G1 X132.517 Y109.198 E2.2355
G1 X132.519 Y109.204 E2.2357
G1 X132.776 Y110.094 E2.2650
G1 X132.777 Y110.099 E2.2652
G1 X132.799 Y110.183 E2.2679
G1 X132.801 Y110.189 E2.2681
G1 X133.225 Y111.918 E2.3244
G1 X133.227 Y111.926 E2.3246
G1 X133.251 Y112.038 E2.3283
G1 X133.253 Y112.046 E2.3285
G1 X133.584 Y113.796 E2.3848
G1 X133.585 Y113.802 E2.3850
G1 X133.600 Y113.887 E2.3877
G1 X133.601 Y113.893 E2.3879
G1 X133.737 Y114.809 E2.4172
G1 X133.737 Y114.815 E2.4174
G1 X133.748 Y114.901 E2.4201
G1 X133.749 Y114.907 E2.4203
G1 X133.939 Y116.678 E2.4766
G1 X133.940 Y116.686 E2.4768
G1 X133.949 Y116.800 E2.4804
G1 X133.950 Y116.808 E2.4807
G1 X134.046 Y118.601 E2.5374
G1 X134.046 Y118.609 E2.5377
G1 X134.049 Y118.724 E2.5413
G1 X134.049 Y118.732 E2.5416
G1 X134.049 Y120.527 E2.5983
G1 X134.049 Y120.535 E2.5985
G1 X134.046 Y120.650 E2.6022
G1 X134.046 Y120.658 E2.6024
G1 X133.950 Y122.451 E2.6591
G1 X133.949 Y122.459 E2.6594
G1 X133.940 Y122.573 E2.6630
G1 X133.939 Y122.581 E2.6633
G1 X133.747 Y124.366 E2.7200
G1 X133.747 Y124.374 E2.7203
G1 X133.731 Y124.488 E2.7239
G1 X133.730 Y124.496 E2.7241
G1 X133.443 Y126.268 E2.7809
G1 X133.442 Y126.276 E2.7811
G1 X133.420 Y126.389 E2.7848
G1 X133.419 Y126.397 E2.7850
G1 X133.040 Y128.143 E2.8415
G1 X133.038 Y128.149 E2.8417
G1 X133.015 Y128.245 E2.8448
G1 X133.013 Y128.252 E2.8450
G1 X132.554 Y129.980 E2.9015
G1 X132.527 Y130.049 E2.9039
G1 X132.010 Y130.981 E2.9375
G1 X131.967 Y131.041 E2.9398
G1 X131.113 Y131.953 E2.9793
G1 X131.055 Y132.001 E2.9817
G1 X130.144 Y132.582 E3.0158
G1 X130.076 Y132.614 E3.0182
G1 X129.011 Y132.965 E3.0536
G1 X128.947 Y132.979 E3.0557
G1 X128.002 Y133.072 E3.0857
G1 X127.936 Y133.071 E3.0878
G1 X127.057 Y132.963 E3.1158
G1 X127.017 Y132.956 E3.1171
G1 X126.453 Y132.807 E3.1355
G1 X126.414 Y132.794 E3.1368
G1 X115.546 Y128.295 E3.5085
G1 X115.411 Y128.185 E3.5139
G1 X113.971 Y126.094 E3.5942
G1 X113.917 Y125.928 E3.5997
G1 X113.870 Y124.254 E3.6526
G1 X113.871 Y124.219 E3.6537
G1 X113.916 Y123.717 E3.6696
G1 X113.921 Y123.683 E3.6708
G1 X114.118 Y122.740 E3.7012
G1 X114.574 Y119.924 E3.7913
G1 X114.699 Y119.722 E3.7988
G1 X114.823 Y119.632 E3.8037
G1 X114.710 Y119.550 E3.8081
G1 X114.585 Y119.349 E3.8156
G1 X114.091 Y116.389 E3.9104
G1 X113.430 Y113.564 E4.0020
G1 X113.468 Y113.330 E4.0095
G1 X113.545 Y113.205 E4.0142
G1 X113.403 Y113.171 E4.0188
G1 X113.210 Y113.032 E4.0263
G1 X111.676 Y110.562 E4.1182
G1 X109.936 Y108.125 E4.2128
G1 X109.882 Y107.895 E4.2203
G1 X109.904 Y107.757 E4.2247
G1 X109.753 Y107.781 E4.2295
G1 X109.522 Y107.726 E4.2370
G1 X107.239 Y106.079 E4.3260
G1 X104.623 Y104.439 E4.4235
G1 X104.486 Y104.247 E4.4310
G1 X104.455 Y104.117 E4.4352
G1 X104.319 Y104.201 E4.4402
G1 X104.084 Y104.238 E4.4477
G1 X101.436 Y103.606 E4.5338
G1 X98.302 Y103.069 E4.6342
G1 X98.101 Y102.943 E4.6417
G1 X98.034 Y102.850 E4.6453
G1 X97.964 Y102.947 E4.6491
G1 X97.764 Y103.072 E4.6566
G1 X94.684 Y103.595 E4.7553
G1 X91.981 Y104.237 E4.8431
G1 X91.746 Y104.199 E4.8506
G1 X91.613 Y104.118 E4.8555
G1 X91.582 Y104.251 E4.8598
G1 X91.444 Y104.444 E4.8673
G1 X88.874 Y106.050 E4.9631
G1 X86.542 Y107.726 E5.0538
G1 X86.311 Y107.781 E5.0613
G1 X86.154 Y107.756 E5.0664
G1 X86.183 Y107.945 E5.0724
G1 X86.126 Y108.177 E5.0799
G1 X84.655 Y110.178 E5.1584
G1 X83.965 Y111.217 E5.1978
G1 X83.948 Y111.240 E5.1987
G1 X83.693 Y111.554 E5.2115
G1 X83.674 Y111.576 E5.2124
G1 X82.480 Y112.796 E5.2664
G1 X82.323 Y112.882 E5.2720
G1 X79.746 Y113.409 E5.3551
G1 X79.567 Y113.391 E5.3608
G1 X68.659 Y108.871 E5.7339
G1 X68.622 Y108.853 E5.7352
G1 X68.118 Y108.559 E5.7536
G1 X68.085 Y108.536 E5.7549
G1 X67.387 Y107.991 E5.7829
G1 X67.340 Y107.944 E5.7850
G1 X66.737 Y107.211 E5.8150
G1 X66.701 Y107.155 E5.8171
G1 X66.195 Y106.151 E5.8526
G1 X66.169 Y106.080 E5.8550
G1 X65.937 Y105.017 E5.8894
G1 X65.930 Y104.942 E5.8918
G1 X65.975 Y103.689 E5.9314
G1 X65.987 Y103.616 E5.9337
G1 X66.282 Y102.596 E5.9673
G1 X66.312 Y102.528 E5.9696
G1 X67.264 Y100.894 E6.0294
G1 X67.268 Y100.888 E6.0296
G1 X67.321 Y100.802 E6.0328
G1 X67.325 Y100.796 E6.0330
G1 X68.289 Y99.307 E6.0891
G1 X68.292 Y99.302 E6.0892
G1 X68.341 Y99.230 E6.0920
G1 X68.344 Y99.226 E6.0922
G1 X68.879 Y98.469 E6.1214
G1 X68.882 Y98.464 E6.1216
G1 X68.933 Y98.394 E6.1243
G1 X68.937 Y98.390 E6.1245
G1 X70.013 Y96.989 E6.1804
G1 X70.017 Y96.984 E6.1805
G1 X70.071 Y96.917 E6.1833
G1 X70.075 Y96.912 E6.1835
G1 X70.668 Y96.201 E6.2127
G1 X70.672 Y96.196 E6.2129
G1 X70.728 Y96.131 E6.2156
G1 X70.732 Y96.127 E6.2158
G1 X71.927 Y94.806 E6.2721
G1 X71.932 Y94.800 E6.2724
G1 X72.012 Y94.717 E6.2760
G1 X72.017 Y94.711 E6.2762
G1 X73.286 Y93.451 E6.3327
G1 X73.291 Y93.446 E6.3330
G1 X73.364 Y93.376 E6.3362
G1 X73.370 Y93.372 E6.3364
G1 X76.458 Y90.579 E6.4680
G1 X78.687 Y88.489 E6.5645
G1 X80.870 Y86.358 E6.6609
G1 X83.008 Y84.184 E6.7572
G1 X85.224 Y81.836 E6.8592
G1 X87.389 Y79.441 E6.9613
G1 X89.503 Y77.000 E7.0633
G1 X91.790 Y74.242 E7.1765
G1 X91.797 Y74.235 E7.1768
G1 X92.098 Y74.498 F4800
G92 E0
G1 X92.188 Y74.396 E0.0043 F1800
G1 X92.190 Y74.394 E0.0044
G1 X92.626 Y73.935 E0.0244
G1 X92.629 Y73.931 E0.0245
G1 X92.765 Y73.800 E0.0305
G1 X92.768 Y73.797 E0.0306
G1 X93.156 Y73.457 E0.0470
G1 X93.163 Y73.451 E0.0472
G1 X93.456 Y73.237 E0.0587
G1 X93.464 Y73.232 E0.0590
G1 X94.313 Y72.719 E0.0903
G1 X94.337 Y72.709 E0.0912
G1 X95.407 Y72.408 E0.1263
G1 X95.433 Y72.405 E0.1271
G1 X97.665 Y72.395 E0.1976
G1 X97.682 Y72.395 E0.1982
G1 X101.713 Y72.407 E0.3255
G1 X121.364 Y72.403 E0.9464
G1 X121.392 Y72.407 E0.9473
G1 X122.500 Y72.725 E0.9838
G1 X122.525 Y72.736 E0.9846
G1 X123.567 Y73.388 E1.0235
G1 X123.588 Y73.405 E1.0243
G1 X124.334 Y74.213 E1.0591
G1 X124.349 Y74.234 E1.0599
G1 X124.833 Y75.166 E1.0931
G1 X124.839 Y75.180 E1.0935
G1 X125.033 Y75.736 E1.1122
G1 X125.037 Y75.750 E1.1126
G1 X125.189 Y76.537 E1.1380
G1 X125.191 Y76.545 E1.1382
G1 X125.226 Y76.838 E1.1475
G1 X125.227 Y76.846 E1.1478
G1 X125.254 Y77.432 E1.1663
G1 X125.255 Y77.435 E1.1664
G1 X125.257 Y77.532 E1.1695
G1 X125.257 Y77.535 E1.1696
G1 X125.257 Y87.634 E1.4886
G1 X129.596 Y103.116 E1.9967
G1 X130.028 Y103.957 E2.0266
G1 X130.029 Y103.959 E2.0266
G1 X130.070 Y104.044 E2.0296
G1 X130.071 Y104.047 E2.0297
G1 X130.811 Y105.669 E2.0860
G1 X130.812 Y105.671 E2.0861
G1 X130.855 Y105.772 E2.0896
G1 X130.856 Y105.775 E2.0897
G1 X131.510 Y107.440 E2.1462
G1 X131.511 Y107.443 E2.1463
G1 X131.548 Y107.546 E2.1498
G1 X131.549 Y107.548 E2.1499
G1 X132.109 Y109.234 E2.2060
G1 X132.110 Y109.236 E2.2060
G1 X132.134 Y109.314 E2.2086
G1 X132.135 Y109.316 E2.2087
G1 X132.391 Y110.203 E2.2379
G1 X132.391 Y110.205 E2.2379
G1 X132.412 Y110.284 E2.2405
G1 X132.413 Y110.286 E2.2406
G1 X132.836 Y112.011 E2.2967
G1 X132.837 Y112.014 E2.2968
G1 X132.860 Y112.121 E2.3002
G1 X132.861 Y112.123 E2.3003
G1 X133.191 Y113.868 E2.3565
G1 X133.191 Y113.870 E2.3565
G1 X133.205 Y113.951 E2.3591
G1 X133.205 Y113.953 E2.3592
G1 X133.341 Y114.866 E2.3883
G1 X133.341 Y114.868 E2.3884
G1 X133.351 Y114.950 E2.3910
G1 X133.351 Y114.952 E2.3911
G1 X133.541 Y116.718 E2.4472
G1 X133.541 Y116.720 E2.4473
G1 X133.550 Y116.829 E2.4507
G1 X133.550 Y116.832 E2.4508
G1 X133.646 Y118.619 E2.5074
G1 X133.646 Y118.622 E2.5074
G1 X133.649 Y118.732 E2.5109
G1 X133.649 Y118.734 E2.5110
G1 X133.649 Y120.524 E2.5675
G1 X133.649 Y120.527 E2.5676
G1 X133.646 Y120.637 E2.5711
G1 X133.646 Y120.639 E2.5712
G1 X133.550 Y122.426 E2.6277
G1 X133.550 Y122.429 E2.6278
G1 X133.541 Y122.538 E2.6313
G1 X133.541 Y122.541 E2.6314
G1 X133.350 Y124.321 E2.6879
G1 X133.350 Y124.323 E2.6880
G1 X133.335 Y124.432 E2.6915
G1 X133.335 Y124.435 E2.6916
G1 X133.049 Y126.202 E2.7481
G1 X133.048 Y126.204 E2.7482
G1 X133.028 Y126.312 E2.7517
G1 X133.027 Y126.314 E2.7517
G1 X132.649 Y128.056 E2.8080
G1 X132.649 Y128.058 E2.8081
G1 X132.627 Y128.149 E2.8111
G1 X132.626 Y128.151 E2.8111
G1 X132.174 Y129.854 E2.8668
G1 X132.165 Y129.877 E2.8676
G1 X131.672 Y130.765 E2.8997
G1 X131.658 Y130.785 E2.9005
G1 X130.838 Y131.661 E2.9384
G1 X130.819 Y131.677 E2.9392
G1 X129.950 Y132.231 E2.9717
G1 X129.927 Y132.242 E2.9725
G1 X128.907 Y132.578 E3.0065
G1 X128.886 Y132.583 E3.0071
G1 X127.985 Y132.671 E3.0357
G1 X127.963 Y132.671 E3.0364
G1 X127.119 Y132.568 E3.0633
G1 X127.106 Y132.565 E3.0637
G1 X126.567 Y132.424 E3.0813
G1 X126.555 Y132.420 E3.0817
G1 X115.753 Y127.947 E3.4511
G1 X115.708 Y127.911 E3.4530
G1 X114.333 Y125.914 E3.5296
G1 X114.315 Y125.859 E3.5314
G1 X114.270 Y124.255 E3.5821
G1 X114.271 Y124.243 E3.5825
G1 X114.313 Y123.765 E3.5977
G1 X114.315 Y123.753 E3.5980
G1 X114.512 Y122.813 E3.6284
G1 X114.956 Y120.066 E3.7163
G1 X114.998 Y119.999 E3.7188
G1 X115.505 Y119.631 E3.7386
G1 X115.008 Y119.272 E3.7580
