; G-Code generated by Simplify3D(R) Version 3.1.1
; May 19, 2017 at 4:06:17 PM
; Settings Summary
;   processName,Process1
;   applyToModels,MK8_Mount_MK1
;   profileName,Odin One MK1 r1 (modified)
;   profileVersion,2017-03-09 19:15:39
;   baseProfile,Default (modified)
;   printMaterial,PET-G
;   printQuality,Medium
;   printExtruders,
;   extruderName,Primary Extruder
;   extruderToolheadNumber,0
;   extruderDiameter,0.4
;   extruderAutoWidth,1
;   extruderWidth,0.48
;   extrusionMultiplier,1
;   extruderUseRetract,1
;   extruderRetractionDistance,0.8
;   extruderExtraRestartDistance,0
;   extruderRetractionZLift,0
;   extruderRetractionSpeed,1500
;   extruderUseCoasting,0
;   extruderCoastingDistance,0.4
;   extruderUseWipe,0
;   extruderWipeDistance,5
;   primaryExtruder,0
;   layerHeight,0.3
;   topSolidLayers,4
;   bottomSolidLayers,2
;   perimeterOutlines,1
;   printPerimetersInsideOut,1
;   startPointOption,2
;   startPointOriginX,0
;   startPointOriginY,0
;   startPointOriginZ,300
;   sequentialIslands,0
;   spiralVaseMode,0
;   firstLayerHeightPercentage,95
;   firstLayerWidthPercentage,100
;   firstLayerUnderspeed,0.6
;   useRaft,0
;   raftExtruder,0
;   raftLayers,3
;   raftOffset,3
;   raftSeparationDistance,0.14
;   raftInfill,85
;   disableRaftBaseLayers,0
;   useSkirt,1
;   skirtExtruder,0
;   skirtLayers,1
;   skirtOutlines,2
;   skirtOffset,4
;   usePrimePillar,0
;   primePillarExtruder,999
;   primePillarWidth,12
;   primePillarLocation,7
;   primePillarSpeedMultiplier,1
;   useOozeShield,0
;   oozeShieldExtruder,999
;   oozeShieldOffset,2
;   oozeShieldOutlines,1
;   oozeShieldSidewallShape,1
;   oozeShieldSidewallAngle,30
;   oozeShieldSpeedMultiplier,1
;   infillExtruder,0
;   internalInfillPattern,Grid
;   externalInfillPattern,Rectilinear
;   infillPercentage,25
;   outlineOverlapPercentage,15
;   infillExtrusionWidthPercentage,100
;   minInfillLength,0.6
;   infillLayerInterval,1
;   infillAngles,45,-45
;   overlapInfillAngles,1
;   generateSupport,1
;   supportExtruder,0
;   supportInfillPercentage,30
;   supportExtraInflation,0
;   denseSupportLayers,0
;   denseSupportInfillPercentage,70
;   supportLayerInterval,1
;   supportHorizontalPartOffset,0.3
;   supportUpperSeparationLayers,1
;   supportLowerSeparationLayers,1
;   supportType,0
;   supportGridSpacing,3
;   maxOverhangAngle,45
;   supportAngles,0
;   temperatureName,Primary Extruder,Bed
;   temperatureNumber,0,1
;   temperatureSetpointCount,2,2
;   temperatureSetpointLayers,1,2,1,3
;   temperatureSetpointTemperatures,245,240,75,65
;   temperatureStabilizeAtStartup,1,1
;   temperatureHeatedBed,0,1
;   temperatureRelayBetweenLayers,0,0
;   temperatureRelayBetweenLoops,0,0
;   fanLayers,1,3
;   fanSpeeds,0,30
;   blipFanToFullPower,1
;   adjustSpeedForCooling,1
;   minSpeedLayerTime,15
;   minCoolingSpeedSlowdown,20
;   increaseFanForCooling,1
;   minFanLayerTime,18
;   maxCoolingFanSpeed,100
;   increaseFanForBridging,1
;   bridgingFanSpeed,100
;   use5D,1
;   relativeEdistances,0
;   allowEaxisZeroing,1
;   independentExtruderAxes,0
;   includeM10123,0
;   stickySupport,1
;   applyToolheadOffsets,0
;   gcodeXoffset,0
;   gcodeYoffset,0
;   gcodeZoffset,0
;   overrideMachineDefinition,1
;   machineTypeOverride,0
;   strokeXoverride,200
;   strokeYoverride,200
;   strokeZoverride,200
;   originOffsetXoverride,0
;   originOffsetYoverride,0
;   originOffsetZoverride,0
;   homeXdirOverride,-1
;   homeYdirOverride,-1
;   homeZdirOverride,-1
;   flipXoverride,1
;   flipYoverride,-1
;   flipZoverride,1
;   toolheadOffsets,0,0|0,0|0,0|0,0|0,0|0,0
;   overrideFirmwareConfiguration,1
;   firmwareTypeOverride,RepRap (Marlin/Repetier/Sprinter)
;   GPXconfigOverride,r2
;   baudRateOverride,250000
;   overridePrinterModels,0
;   printerModelsOverride
;   startingGcode,G28 ; home all axes,,G29;,,G92 E0                   ;zero the extruded length,,G1 X0 F3000;,,G1 E3 F100 ; prime extruder,,G92 E0 ;zero the extruded length again,,M117 Odin Printing...;
;   layerChangeGcode,
;   retractionGcode,
;   toolChangeGcode,
;   endingGcode,M104 S0 ; turn off extruder,M140 S0 ; turn off bed,M106 S0;, ,G1 Y180 F2000 ;,,M84 ; disable motors
;   exportFileFormat,gcode
;   celebration,0
;   celebrationSong,Take On Me
;   postProcessing,
;   defaultSpeed,2400
;   outlineUnderspeed,0.7
;   solidInfillUnderspeed,0.7
;   supportUnderspeed,0.8
;   rapidXYspeed,5400
;   rapidZspeed,120
;   minBridgingArea,10
;   bridgingExtraInflation,0.45
;   bridgingExtrusionMultiplier,1
;   bridgingSpeedMultiplier,1
;   filamentDiameter,1.75
;   filamentPricePerKg,20
;   filamentDensity,1.38
;   useMinPrintHeight,0
;   minPrintHeight,0
;   useMaxPrintHeight,0
;   maxPrintHeight,0
;   useDiaphragm,0
;   diaphragmLayerInterval,20
;   robustSlicing,1
;   mergeAllIntoSolid,0
;   onlyRetractWhenCrossingOutline,0
;   retractBetweenLayers,1
;   useRetractionMinTravel,0
;   retractionMinTravel,3
;   retractWhileWiping,0
;   onlyWipeOutlines,1
;   avoidCrossingOutline,0
;   maxMovementDetourFactor,3
;   toolChangeRetractionDistance,12
;   toolChangeExtraRestartDistance,-0.5
;   toolChangeRetractionSpeed,600
;   allowThinWallGapFill,1
;   thinWallAllowedOverlapPercentage,5
;   horizontalSizeCompensation,0
G90
M82
M106 S0
M140 S75
M190 S75
M104 S245 T0
M109 S245 T0
G28 ; home all axes
G29;
G92 E0                   ;zero the extruded length
G1 X0 F3000;
G1 E3 F100 ; prime extruder
G92 E0 ;zero the extruded length again
M117 Odin Printing...;
G92 E0
G1 E-0.8000 F1500
G1 Z0.285 F120
; layer 1, Z = 0.285
T0
; tool H0.300 W0.480
; skirt
G1 X49.191 Y51.390 F5400
G1 E0.0000 F450
G92 E0
G1 X49.456 Y51.280 E0.0171 F1440
G1 X146.374 Y51.280 E5.8195
G1 X146.639 Y51.390 E5.8366
G1 X149.184 Y53.935 E6.0522
G1 X149.294 Y54.200 E6.0693
G1 X149.294 Y64.800 E6.7039
G1 X149.184 Y65.065 E6.7211
G1 X146.639 Y67.610 E6.9366
G1 X146.374 Y67.720 E6.9538
G1 X127.211 Y67.720 E8.1010
G1 X125.976 Y68.955 E8.2056
G1 X125.976 Y128.867 E11.7924
G1 X125.948 Y129.006 E11.8009
G1 X125.285 Y130.607 E11.9046
G1 X125.206 Y130.725 E11.9131
G1 X107.981 Y147.950 E13.3715
G1 X107.863 Y148.029 E13.3800
G1 X106.262 Y148.692 E13.4838
G1 X106.123 Y148.720 E13.4923
G1 X66.389 Y148.720 E15.8710
G1 X66.250 Y148.692 E15.8795
G1 X64.649 Y148.029 E15.9833
G1 X64.531 Y147.950 E15.9918
G1 X47.306 Y130.725 E17.4502
G1 X47.227 Y130.607 E17.4587
G1 X46.564 Y129.006 E17.5625
G1 X46.536 Y128.867 E17.5709
G1 X46.536 Y54.200 E22.0411
G1 X46.645 Y53.935 E22.0583
G1 X49.191 Y51.390 E22.2738
G92 E0
G1 E-0.8000 F1500
G1 X49.463 Y51.797 F5400
G1 E0.0000 F1500
G92 E0
G1 X49.551 Y51.760 E0.0057 F1440
G1 X146.279 Y51.760 E5.7966
G1 X146.367 Y51.797 E5.8023
G1 X148.777 Y54.207 E6.0064
G1 X148.814 Y54.295 E6.0121
G1 X148.814 Y64.705 E6.6353
G1 X148.777 Y64.793 E6.6410
G1 X146.367 Y67.203 E6.8451
G1 X146.279 Y67.240 E6.8509
G1 X127.012 Y67.240 E8.0043
G1 X125.496 Y68.756 E8.1327
G1 X125.496 Y128.819 E11.7285
G1 X125.487 Y128.866 E11.7314
G1 X124.860 Y130.380 E11.8295
G1 X124.834 Y130.419 E11.8323
G1 X107.675 Y147.577 E13.2851
G1 X107.636 Y147.604 E13.2879
G1 X106.122 Y148.231 E13.3860
G1 X106.075 Y148.240 E13.3888
G1 X66.437 Y148.240 E15.7619
G1 X66.390 Y148.231 E15.7648
G1 X64.876 Y147.604 E15.8629
G1 X64.837 Y147.577 E15.8657
G1 X47.678 Y130.419 E17.3185
G1 X47.652 Y130.380 E17.3213
G1 X47.025 Y128.866 E17.4194
G1 X47.016 Y128.819 E17.4222
G1 X47.016 Y54.295 E21.8838
G1 X47.052 Y54.207 E21.8895
G1 X49.463 Y51.797 E22.0936
G92 E0
G1 E-0.8000 F1500
; outer perimeter
G1 X51.496 Y56.240 F5400
G1 E0.0000 F1500
G92 E0
G1 X144.334 Y56.240 E5.5581 F1008
G1 X144.334 Y62.760 E5.9484
G1 X125.157 Y62.760 E7.0965
G1 X121.016 Y66.901 E7.4471
G1 X121.016 Y127.901 E11.0990
G1 X105.157 Y143.760 E12.4418
G1 X67.355 Y143.760 E14.7049
G1 X51.496 Y127.901 E16.0477
G1 X51.496 Y56.240 E20.3379
G92 E0
G1 E-0.8000 F1500
; outer perimeter
G1 X57.170 Y59.415 F5400
G1 E0.0000 F1500
G92 E0
G1 X56.814 Y59.879 E0.0350 F1008
G1 X56.590 Y60.420 E0.0701
G1 X56.514 Y61.000 E0.1051
G1 X56.590 Y61.580 E0.1402
G1 X56.814 Y62.121 E0.1752
G1 X57.170 Y62.585 E0.2102
G1 X57.635 Y62.942 E0.2453
G1 X58.176 Y63.166 E0.2803
G1 X58.756 Y63.242 E0.3154
G1 X59.336 Y63.166 E0.3504
G1 X59.877 Y62.942 E0.3854
G1 X60.341 Y62.585 E0.4205
G1 X60.698 Y62.121 E0.4555
G1 X60.922 Y61.580 E0.4906
G1 X60.998 Y61.000 E0.5256
G1 X60.922 Y60.420 E0.5606
G1 X60.698 Y59.879 E0.5957
G1 X60.341 Y59.415 E0.6307
G1 X59.877 Y59.058 E0.6658
G1 X59.336 Y58.834 E0.7008
G1 X58.756 Y58.758 E0.7359
G1 X58.176 Y58.834 E0.7709
G1 X57.635 Y59.058 E0.8059
G1 X57.170 Y59.415 E0.8410
G92 E0
G1 E-0.8000 F1500
; outer perimeter
G1 X66.016 Y68.760 F5400
G1 E0.0000 F1500
G92 E0
G1 X66.016 Y86.240 E1.0465 F1008
G1 X106.496 Y86.240 E3.4700
G1 X106.496 Y68.760 E4.5165
G1 X66.016 Y68.760 E6.9400
G92 E0
G1 E-0.8000 F1500
; outer perimeter
G1 X69.385 Y89.491 F5400
G1 E0.0000 F1500
G92 E0
G1 X69.024 Y89.768 E0.0272 F1008
G1 X68.747 Y90.129 E0.0545
G1 X68.573 Y90.549 E0.0817
G1 X68.514 Y91.000 E0.1089
G1 X68.573 Y91.451 E0.1361
G1 X68.747 Y91.871 E0.1634
G1 X69.024 Y92.232 E0.1906
G1 X69.385 Y92.509 E0.2178
G1 X69.805 Y92.683 E0.2450
G1 X70.256 Y92.742 E0.2723
G1 X70.707 Y92.683 E0.2995
G1 X71.127 Y92.509 E0.3267
G1 X71.488 Y92.232 E0.3539
G1 X71.765 Y91.871 E0.3812
G1 X71.939 Y91.451 E0.4084
G1 X71.998 Y91.000 E0.4356
G1 X71.939 Y90.549 E0.4628
G1 X71.765 Y90.129 E0.4901
G1 X71.488 Y89.768 E0.5173
G1 X71.127 Y89.491 E0.5445
G1 X70.707 Y89.317 E0.5717
G1 X70.256 Y89.258 E0.5990
G1 X69.805 Y89.317 E0.6262
G1 X69.385 Y89.491 E0.6534
G92 E0
G1 E-0.8000 F1500
; outer perimeter
G1 X58.176 Y117.334 F5400
G1 E0.0000 F1500
G92 E0
G1 X57.635 Y117.558 E0.0351 F1008
G1 X57.170 Y117.915 E0.0701
G1 X56.814 Y118.379 E0.1051
G1 X56.590 Y118.919 E0.1401
G1 X56.514 Y119.500 E0.1752
G1 X56.590 Y120.081 E0.2103
G1 X56.814 Y120.621 E0.2453
G1 X57.170 Y121.085 E0.2803
G1 X57.635 Y121.442 E0.3154
G1 X58.176 Y121.666 E0.3504
G1 X58.756 Y121.742 E0.3854
G1 X59.336 Y121.666 E0.4205
G1 X59.877 Y121.442 E0.4555
G1 X60.341 Y121.085 E0.4906
G1 X60.698 Y120.621 E0.5256
G1 X60.922 Y120.081 E0.5606
G1 X60.998 Y119.500 E0.5957
G1 X60.922 Y118.919 E0.6308
G1 X60.698 Y118.379 E0.6658
G1 X60.341 Y117.915 E0.7008
G1 X59.877 Y117.558 E0.7359
G1 X59.336 Y117.334 E0.7709
G1 X58.756 Y117.258 E0.8059
G1 X58.176 Y117.334 E0.8410
G92 E0
G1 E-0.8000 F1500
; outer perimeter
G1 X69.805 Y129.317 F5400
G1 E0.0000 F1500
G92 E0
G1 X69.385 Y129.491 E0.0272 F1008
G1 X69.024 Y129.768 E0.0544
G1 X68.747 Y130.129 E0.0817
G1 X68.573 Y130.549 E0.1089
G1 X68.514 Y131.000 E0.1361
G1 X68.573 Y131.451 E0.1633
G1 X68.747 Y131.871 E0.1906
G1 X69.024 Y132.232 E0.2178
G1 X69.385 Y132.509 E0.2450
G1 X69.805 Y132.683 E0.2723
G1 X70.256 Y132.742 E0.2995
G1 X70.707 Y132.683 E0.3267
G1 X71.127 Y132.509 E0.3539
G1 X71.488 Y132.232 E0.3812
G1 X71.765 Y131.871 E0.4084
G1 X71.939 Y131.451 E0.4356
G1 X71.998 Y131.000 E0.4629
G1 X71.939 Y130.549 E0.4901
G1 X71.765 Y130.129 E0.5173
G1 X71.488 Y129.768 E0.5446
G1 X71.127 Y129.491 E0.5718
G1 X70.707 Y129.317 E0.5990
G1 X70.256 Y129.258 E0.6262
G1 X69.805 Y129.317 E0.6534
G92 E0
G1 E-0.8000 F1500
; outer perimeter
G1 X101.385 Y129.491 F5400
G1 E0.0000 F1500
G92 E0
G1 X101.024 Y129.768 E0.0272 F1008
G1 X100.747 Y130.129 E0.0545
G1 X100.573 Y130.549 E0.0817
G1 X100.514 Y131.000 E0.1089
G1 X100.573 Y131.451 E0.1361
G1 X100.747 Y131.871 E0.1634
G1 X101.024 Y132.232 E0.1906
G1 X101.385 Y132.509 E0.2178
G1 X101.805 Y132.683 E0.2451
G1 X102.256 Y132.742 E0.2723
G1 X102.707 Y132.683 E0.2995
G1 X103.127 Y132.509 E0.3267
G1 X103.487 Y132.232 E0.3539
G1 X103.765 Y131.871 E0.3812
G1 X103.939 Y131.451 E0.4084
G1 X103.998 Y131.000 E0.4356
G1 X103.939 Y130.549 E0.4629
G1 X103.765 Y130.129 E0.4901
G1 X103.487 Y129.768 E0.5174
G1 X103.127 Y129.491 E0.5445
G1 X102.707 Y129.317 E0.5718
G1 X102.256 Y129.258 E0.5990
G1 X101.805 Y129.317 E0.6262
G1 X101.385 Y129.491 E0.6534
G92 E0
G1 E-0.8000 F1500
; outer perimeter
G1 X112.171 Y117.915 F5400
G1 E0.0000 F1500
G92 E0
G1 X111.815 Y118.379 E0.0350 F1008
G1 X111.590 Y118.919 E0.0701
G1 X111.514 Y119.500 E0.1051
G1 X111.590 Y120.081 E0.1402
G1 X111.815 Y120.621 E0.1752
G1 X112.171 Y121.085 E0.2102
G1 X112.635 Y121.442 E0.2453
G1 X113.175 Y121.666 E0.2803
G1 X113.756 Y121.742 E0.3154
G1 X114.336 Y121.666 E0.3504
G1 X114.877 Y121.442 E0.3855
G1 X115.341 Y121.085 E0.4205
G1 X115.698 Y120.621 E0.4555
G1 X115.922 Y120.081 E0.4905
G1 X115.998 Y119.500 E0.5256
G1 X115.922 Y118.919 E0.5607
G1 X115.698 Y118.379 E0.5957
G1 X115.341 Y117.915 E0.6307
G1 X114.877 Y117.558 E0.6658
G1 X114.336 Y117.334 E0.7009
G1 X113.756 Y117.258 E0.7359
G1 X113.175 Y117.334 E0.7709
G1 X112.635 Y117.558 E0.8059
G1 X112.171 Y117.915 E0.8410
G92 E0
G1 E-0.8000 F1500
; outer perimeter
G1 X100.747 Y90.129 F5400
G1 E0.0000 F1500
G92 E0
G1 X100.573 Y90.549 E0.0272 F1008
G1 X100.514 Y91.000 E0.0545
G1 X100.573 Y91.451 E0.0817
G1 X100.748 Y91.871 E0.1089
G1 X101.024 Y92.232 E0.1361
G1 X101.385 Y92.509 E0.1634
G1 X101.805 Y92.683 E0.1906
G1 X102.256 Y92.742 E0.2178
G1 X102.707 Y92.683 E0.2450
G1 X103.127 Y92.509 E0.2723
G1 X103.487 Y92.232 E0.2995
G1 X103.765 Y91.871 E0.3267
G1 X103.939 Y91.451 E0.3539
G1 X103.998 Y91.000 E0.3812
G1 X103.939 Y90.549 E0.4084
G1 X103.765 Y90.129 E0.4356
G1 X103.487 Y89.768 E0.4629
G1 X103.127 Y89.491 E0.4901
G1 X102.707 Y89.317 E0.5173
G1 X102.256 Y89.258 E0.5445
G1 X101.805 Y89.317 E0.5717
G1 X101.385 Y89.491 E0.5990
G1 X101.024 Y89.768 E0.6262
G1 X100.748 Y90.129 E0.6534
G92 E0
G1 E-0.8000 F1500
; outer perimeter
G1 X111.590 Y60.420 F5400
G1 E0.0000 F1500
G92 E0
G1 X111.514 Y61.000 E0.0350 F1008
G1 X111.590 Y61.580 E0.0701
G1 X111.815 Y62.121 E0.1051
G1 X112.171 Y62.585 E0.1402
G1 X112.635 Y62.942 E0.1752
G1 X113.175 Y63.166 E0.2102
G1 X113.756 Y63.242 E0.2453
G1 X114.336 Y63.166 E0.2803
G1 X114.877 Y62.942 E0.3154
G1 X115.341 Y62.585 E0.3504
G1 X115.698 Y62.121 E0.3854
G1 X115.922 Y61.580 E0.4205
G1 X115.998 Y61.000 E0.4555
G1 X115.922 Y60.420 E0.4906
G1 X115.698 Y59.879 E0.5256
G1 X115.341 Y59.415 E0.5607
G1 X114.877 Y59.058 E0.5957
G1 X114.336 Y58.834 E0.6308
G1 X113.756 Y58.758 E0.6658
G1 X113.175 Y58.834 E0.7008
G1 X112.635 Y59.058 E0.7359
G1 X112.171 Y59.415 E0.7709
G1 X111.815 Y59.879 E0.8059
G1 X111.590 Y60.420 E0.8410
G92 E0
G1 E-0.8000 F1500
; solid layer
G1 X113.125 Y63.571 F5400
G1 E0.0000 F1500
G92 E0
G1 X120.608 Y71.054 E0.6336 F1008
G1 X120.608 Y70.375 E0.6742
G1 X113.871 Y63.638 E1.2446
G1 X114.442 Y63.563 E1.2791
G1 X114.465 Y63.554 E1.2806
G1 X120.608 Y69.696 E1.8007
G1 X120.608 Y69.018 E1.8413
G1 X114.945 Y63.355 E2.3208
G1 X115.083 Y63.298 E2.3297
G1 X115.357 Y63.088 E2.3504
G1 X120.608 Y68.339 E2.7950
G1 X120.608 Y67.660 E2.8356
G1 X115.716 Y62.768 E3.2498
G1 X116.011 Y62.384 E3.2788
G1 X120.608 Y66.981 E3.6681
G1 X120.608 Y66.732 E3.6830
G1 X120.823 Y66.517 E3.7012
G1 X116.224 Y61.918 E4.0906
G1 X116.319 Y61.687 E4.1055
G1 X116.360 Y61.376 E4.1243
G1 X121.162 Y66.178 E4.5309
G1 X121.502 Y65.838 E4.5596
G1 X116.371 Y60.708 E4.9940
G92 E0
G1 E-0.8000 F1500
G1 X106.904 Y68.890 F5400
G1 E0.0000 F1500
G92 E0
G1 X120.608 Y82.594 E1.1603 F1008
G1 X120.608 Y83.273 E1.2009
G1 X106.904 Y69.569 E2.3612
G1 X106.904 Y70.248 E2.4018
G1 X120.608 Y83.952 E3.5621
G1 X120.608 Y84.631 E3.6027
G1 X106.904 Y70.927 E4.7630
G1 X106.904 Y71.605 E4.8036
G1 X120.608 Y85.309 E5.9639
G1 X120.608 Y85.988 E6.0045
G1 X106.904 Y72.284 E7.1648
G1 X106.904 Y72.963 E7.2055
G1 X120.608 Y86.667 E8.3657
G1 X120.608 Y87.346 E8.4064
G1 X106.904 Y73.642 E9.5666
G1 X106.904 Y74.321 E9.6073
G1 X120.608 Y88.025 E10.7675
G1 X120.608 Y88.703 E10.8082
G1 X106.904 Y74.999 E11.9685
G1 X106.904 Y75.678 E12.0091
G1 X120.608 Y89.382 E13.1694
G1 X120.608 Y90.061 E13.2100
G1 X106.904 Y76.357 E14.3703
G1 X106.904 Y77.036 E14.4109
G1 X120.608 Y90.740 E15.5712
G1 X120.608 Y91.419 E15.6118
G1 X106.904 Y77.715 E16.7721
G1 X106.904 Y78.394 E16.8127
G1 X120.608 Y92.098 E17.9730
G1 X120.608 Y92.776 E18.0136
G1 X106.904 Y79.072 E19.1739
G1 X106.904 Y79.751 E19.2145
G1 X120.608 Y93.455 E20.3748
G1 X120.608 Y94.134 E20.4155
G1 X106.904 Y80.430 E21.5757
G1 X106.904 Y81.109 E21.6164
